X:5054
T:Tom Lennon's
M:9/8
R:Slip Jig
L:1/8
Q:180
C:Aidan Crossey
K:D
|:dBA ABd F2D|dBA ABd e3|dBA ABd F2D|DED FAB D3:||
|:fed def g2B|fed dcB A3|fed def g2B|AFA Bdc d3:||
